X: 51
T: New York Girls
B: begged borrowed and stolen
M:4/4
L:1/4
R: Polka
Q: 1/4=170
K:G
V:1 
Can't You Dance The Polka
d|"G"GB dB|"C"ce-eg|"D"fd cd|"G"B3 d|"G"g>g gd|"C"fe ce|"D7"dd cA|"G"GA Bc|
"G"d3 B|"C"c e3|"D"d2 c2|"G"B G3|"G"g3 d|"C"fe c2|"D7"d>d cA|"G"A G2|]
% abcbook-tune_id 62828a3ad97168c2033c5a8e


% abcbook-boost 0
% abcbook-tablature 
% abcbook-transpose 
% abcbook-lastupdated 1652725431081
% abcbook-soundfonts 
% abcbook-repeats 3
% abc-sessionorg_id 
% abc-sessionorg_setting 0
% abc-sessionorg_setting_id undefined
% abc-boost 0
% Rhythm Polka
% Transcriptions Only 1 transcription
% Mode major
% Key G
% Time_signature 4/4
% Has_accompaniment_chords Has chords

